exports/global-child-mortality-timeseries_v4_850x600.svg

<svg xmlns="http://www.w3.org/2000/svg" version="1.1" style="background-color:#fff;-webkit-font-smoothing:antialiased" width="850" height="600" font-family="'Helvetica Neue',Helvetica,Arial,sans-serif" font-size="18" text-rendering="optimizeLegibility"><g class="ChartTab"><g class="HeaderView"><g opacity=".8" transform="matrix(.27 0 0 .27 778 15)"><a xmlns:xlink="http://www.w3.org/1999/xlink" xlink:href="https://ourworldindata.org" target="_blank"><g><path fill="#1B2543" d="M0 0h211.2v130.1H0z"/><path fill="#E63912" d="M0 112.2h211.2v17.9H0z"/><g><path fill="none" d="M1.2 12.3h210.2v99.2H1.2z"/><path fill="#FFF" d="M37.8 32.2c0 12.7-7.7 19.4-17.1 19.4-9.7 0-16.6-7.5-16.6-18.7 0-11.7 7.3-19.3 17.1-19.3 10.1.1 16.6 7.7 16.6 18.6zm-28.6.6c0 7.9 4.3 14.9 11.8 14.9 7.5 0 11.8-6.9 11.8-15.3 0-7.3-3.8-14.9-11.8-14.9-7.9 0-11.8 7.3-11.8 15.3zM62.7 43.8c0 2.7.1 5.1.2 7.2h-4.3l-.3-4.3h-.1c-1.3 2.1-4 4.9-8.8 4.9-4.2 0-9.1-2.3-9.1-11.6V24.6h4.8v14.6c0 5 1.5 8.4 5.9 8.4 3.2 0 5.5-2.2 6.3-4.4.3-.7.4-1.6.4-2.5V24.6h4.8v19.2zM67.3 32.8c0-3.1-.1-5.8-.2-8.2h4.2l.2 5.2h.2c1.2-3.5 4.1-5.8 7.3-5.8.5 0 .9.1 1.4.2v4.5c-.5-.1-1-.2-1.6-.2-3.4 0-5.8 2.6-6.5 6.2-.1.7-.2 1.4-.2 2.2V51h-4.8V32.8zM95.4 51L86 14.2h5l4.4 18.6c1.1 4.6 2.1 9.2 2.7 12.7h.1c.6-3.7 1.8-8 3-12.8l4.9-18.5h5l4.5 18.7c1 4.4 2 8.7 2.6 12.6h.1c.8-4 1.8-8.1 3-12.7l4.9-18.5h4.9L120.6 51h-5L111 31.9c-1.1-4.7-1.9-8.3-2.4-12h-.1c-.7 3.7-1.5 7.3-2.8 12L100.4 51h-5zM154.9 37.6c0 9.8-6.8 14-13.2 14-7.2 0-12.7-5.2-12.7-13.6 0-8.8 5.8-14 13.1-14 7.7 0 12.8 5.5 12.8 13.6zm-21 .3c0 5.8 3.3 10.1 8 10.1 4.6 0 8-4.3 8-10.3 0-4.5-2.2-10.1-7.9-10.1s-8.1 5.2-8.1 10.3zM158.2 32.8c0-3.1-.1-5.8-.2-8.2h4.2l.2 5.2h.2c1.2-3.5 4.1-5.8 7.3-5.8.5 0 .9.1 1.4.2v4.5c-.5-.1-1-.2-1.6-.2-3.4 0-5.8 2.6-6.5 6.2-.1.7-.2 1.4-.2 2.2V51h-4.8V32.8zM173.5 12.3h4.8V51h-4.8V12.3zM206.5 12.3v31.9c0 2.3.1 5 .2 6.8h-4.3l-.2-4.6h-.2c-1.5 2.9-4.7 5.2-9 5.2-6.4 0-11.3-5.4-11.3-13.4-.1-8.8 5.4-14.2 11.9-14.2 4 0 6.8 1.9 8 4h.1V12.3h4.8zm-4.8 23.1c0-.6-.1-1.4-.2-2a7 7 0 00-6.9-5.6c-5 0-7.9 4.4-7.9 10.2 0 5.3 2.6 9.8 7.8 9.8 3.2 0 6.2-2.1 7.1-5.7.2-.7.2-1.3.2-2.1v-4.6zM42.8 64c.1 1.6-1.1 2.9-3.1 2.9-1.7 0-2.9-1.3-2.9-2.9 0-1.7 1.3-3 3-3 1.9 0 3 1.3 3 3zm-5.4 33.8V71.4h4.8v26.4h-4.8zM47.5 78.6c0-2.7-.1-5-.2-7.1h4.3l.3 4.4h.1c1.3-2.5 4.4-5 8.8-5 3.7 0 9.4 2.2 9.4 11.2v15.8h-4.8V82.6c0-4.3-1.6-7.8-6.1-7.8-3.2 0-5.6 2.2-6.5 4.9-.2.6-.3 1.4-.3 2.2v15.9h-4.8V78.6zM84 61.6c2.9-.4 6.3-.8 10.1-.8 6.8 0 11.7 1.6 14.9 4.6 3.3 3 5.2 7.3 5.2 13.2 0 6-1.9 10.9-5.3 14.3-3.4 3.4-9.1 5.3-16.3 5.3-3.4 0-6.2-.2-8.6-.4V61.6zm4.8 32.5c1.2.2 3 .3 4.8.3 10.2 0 15.7-5.7 15.7-15.6.1-8.7-4.9-14.2-14.9-14.2-2.5 0-4.3.2-5.6.5v29zM132.1 97.8l-.4-3.3h-.2a9.79 9.79 0 01-8.1 3.9c-5.4 0-8.1-3.8-8.1-7.6 0-6.4 5.7-9.9 15.9-9.8v-.5c0-2.2-.6-6.1-6-6.1-2.5 0-5 .8-6.9 2l-1.1-3.2c2.2-1.4 5.4-2.3 8.7-2.3 8.1 0 10.1 5.5 10.1 10.8v9.9c0 2.3.1 4.5.4 6.3h-4.3zm-.7-13.4c-5.3-.1-11.2.8-11.2 5.9 0 3.1 2.1 4.6 4.5 4.6 3.4 0 5.6-2.2 6.4-4.4.2-.5.3-1 .3-1.5v-4.6zM146.6 63.9v7.6h6.9v3.7h-6.9v14.2c0 3.3.9 5.1 3.6 5.1 1.3 0 2.2-.2 2.8-.3l.2 3.6c-.9.4-2.4.7-4.3.7-2.2 0-4-.7-5.2-2-1.4-1.4-1.9-3.8-1.9-6.9V75.1h-4.1v-3.7h4.1v-6.3l4.8-1.2zM171.4 97.8l-.4-3.3h-.2a9.79 9.79 0 01-8.1 3.9c-5.4 0-8.1-3.8-8.1-7.6 0-6.4 5.7-9.9 15.9-9.8v-.5c0-2.2-.6-6.1-6-6.1-2.5 0-5 .8-6.9 2l-1.1-3.2c2.2-1.4 5.4-2.3 8.7-2.3 8.1 0 10.1 5.5 10.1 10.8v9.9c0 2.3.1 4.5.4 6.3h-4.3zm-.7-13.4c-5.3-.1-11.2.8-11.2 5.9 0 3.1 2.1 4.6 4.5 4.6 3.4 0 5.6-2.2 6.4-4.4.2-.5.3-1 .3-1.5v-4.6z"/></g></g></a></g><a href="https://ourworldindata.org/grapher/global-child-mortality-timeseries" target="_blank"><text font-size="25.2" x="15" y="35.2" fill="#555"><tspan x="15" y="35.16">Global child mortality</tspan></text></a><text font-size="14.4" x="15" y="53.7" fill="#666"><tspan x="15" y="53.72">Share of the world population dying and surviving the first 5 years of life.</tspan></text></g><g class="StackedArea"><defs><clipPath id="a"><path d="M61.63 0h820v959.8h-820z"/></clipPath></defs><g class="AxisBoxView"><g class="HorizontalAxis" fill="#666" text-anchor="middle" font-size="16.2"><text x="61.6" y="556.5">1800</text><text x="205.9" y="556.5">1850</text><text x="350.2" y="556.5">1900</text><text x="494.5" y="556.5">1950</text><text x="638.8" y="556.5">2000</text><text x="687.8" y="556.5">2017</text></g><g class="VerticalAxis" fill="#666" dominant-baseline="middle" text-anchor="end" font-size="16.2"><text x="56.63" y="535.3">0%</text><text x="56.63" y="443.8">20%</text><text x="56.63" y="352.3">40%</text><text x="56.63" y="260.8">60%</text><text x="56.63" y="169.4">80%</text><text x="56.63" y="77.9">100%</text></g><g class="AxisGridLines"><path stroke="#ccc" d="M61.63 535.3h626.19"/><path stroke="#ddd" stroke-dasharray="3,2" d="M61.63 443.8h626.19M61.63 352.3h626.19M61.63 260.8h626.19M61.63 169.4h626.19M61.63 77.9h626.19"/></g></g><g clip-path="url(#a)"><g class="HeightedLegend clickable"><g class="legendMark"><text font-size="13.5" x="692.8" y="294.4" fill="#2a939b"><tspan x="692.82" y="294.35">Share surviving</tspan><tspan x="692.82" y="309.2">first 5 years of life</tspan></text></g><g class="legendMark"><text font-size="13.5" x="692.8" y="523.1" fill="#e6332e"><tspan x="692.82" y="523.15">Share dying in first</tspan><tspan x="692.82" y="538">5 years</tspan></text></g></g><g class="Areas"><path class="World_1-area" d="M61.6 337.2l57.7 2.8 57.8 10.5 57.7-4.6 57.7 15.6 57.7 8.2 57.7 18.8 57.7 37.5 57.7 24.7 2.9 2.1 2.9 1.5 2.9 1.4 2.9-.5 2.9 1.1 2.8.7 2.9 1 2.9 2.4 2.9 6.4 2.9 2.2 2.9 1.6 2.9 1.4 2.8 1.5 2.9 1.4 2.9 1.2 2.9 1.3 2.9 1.2 2.9 1.2 2.9 1.1 2.8 1.2 2.9 1.4 2.9 1.3 2.9 1.4 2.9 1.5 2.9 1.3 2.9 1.2 2.8 1.1 2.9 1 5.8.4 2.9.5 2.9.6 2.9.5 2.8.5 2.9.7 2.9.7 2.9.8 2.9.9 2.9 1 2.9 1.1 2.8 1.2 2.9 1.3 2.9 1.2 2.9 1.2 2.9 1.4 2.9 1.1 2.9 1.2 2.8 1.1 2.9 1.1 2.9.9 2.9 1.1 2.9 1 2.9.8 2.9.8 2.8.7 2.9.7 2.9.6.02 17.9H61.63" fill="#e6332e" fill-opacity=".7"/><path class="World_0-area" d="M61.6 77.9H604.1l5.8-1.2 2.9-.1 2.9.1 2.9.1 2.8.1 2.9.2 2.9.1 2.9.1h8.7l2.8.1h8.7l2.9.1h2.9l2.9.2 2.8.1 2.9.1 2.9.1h5.8l2.9.1h2.9l2.8.1 2.9-.3h2.9v439.5l-2.9-.6-2.9-.7-2.8-.7-2.9-.8-2.9-.8-2.9-1-2.9-1.1-2.9-.9-2.9-1.1-2.8-1.1-2.9-1.2-2.9-1.1-2.9-1.4-2.9-1.2-2.9-1.2-2.9-1.3-2.8-1.2-2.9-1.1-2.9-1-2.9-.9-2.9-.8-2.9-.7-2.9-.7-2.8-.5-2.9-.5-2.9-.6-2.9-.5-5.8-.4-2.9-1-2.8-1.1-2.9-1.2-2.9-1.3-2.9-1.5-2.9-1.4-2.9-1.3-2.9-1.4-2.8-1.2-2.9-1.1-2.9-1.2-2.9-1.2-2.9-1.3-2.9-1.2-2.9-1.4-2.8-1.5-2.9-1.4-2.9-1.6-2.9-2.2-2.9-6.4-2.9-2.4-2.9-1-2.8-.7-2.9-1.1-2.9.5-2.9-1.4-2.9-1.5-2.9-2.1-57.7-24.7-57.7-37.5-57.7-18.8-57.7-8.2-57.7-15.6-57.7 4.6-57.8-10.5-57.7-2.8" fill="#2a939b" fill-opacity=".7"/><path class="World_1-border" stroke-linecap="round" d="M61.6 337.2l57.7 2.8 57.8 10.5 57.7-4.6 57.7 15.6 57.7 8.2 57.7 18.8 57.7 37.5 57.7 24.7 2.9 2.1 2.9 1.5 2.9 1.4 2.9-.5 2.9 1.1 2.8.7 2.9 1 2.9 2.4 2.9 6.4 2.9 2.2 2.9 1.6 2.9 1.4 2.8 1.5 2.9 1.4 2.9 1.2 2.9 1.3 2.9 1.2 2.9 1.2 2.9 1.1 2.8 1.2 2.9 1.4 2.9 1.3 2.9 1.4 2.9 1.5 2.9 1.3 2.9 1.2 2.8 1.1 2.9 1 5.8.4 2.9.5 2.9.6 2.9.5 2.8.5 2.9.7 2.9.7 2.9.8 2.9.9 2.9 1 2.9 1.1 2.8 1.2 2.9 1.3 2.9 1.2 2.9 1.2 2.9 1.4 2.9 1.1 2.9 1.2 2.8 1.1 2.9 1.1 2.9.9 2.9 1.1 2.9 1 2.9.8 2.9.8 2.8.7 2.9.7 2.9.6" stroke="#C02B26" stroke-opacity=".7" stroke-width=".5" fill="none"/><path class="World_0-border" stroke-linecap="round" d="M61.6 77.9H604.1l5.8-1.2 2.9-.1 2.9.1 2.9.1 2.8.1 2.9.2 2.9.1 2.9.1h8.7l2.8.1h8.7l2.9.1h2.9l2.9.2 2.8.1 2.9.1 2.9.1h5.8l2.9.1h2.9l2.8.1 2.9-.3h2.9" stroke="#237B82" stroke-opacity=".7" stroke-width=".5" fill="none"/></g></g></g><g class="SourcesFooter" fill="#777"><g class="clickable" fill="#777"><text font-size="12.6" x="15" y="581.6"><tspan x="15" y="581.58">Source: Gapminder and the World Bank</tspan></text></g><text font-size="12.6" x="383.2" y="581.6"><tspan x="383.16" y="581.58"><a target="_blank" href="https://ourworldindata.org/a-history-of-global-living-conditions-in-5-charts/" fill="#777">OurWorldInData.org/a-history-of-global-living-conditions-in-5-charts/</a> • <a class="cclogo" href="http://creativecommons.org/licenses/by-sa/4.0/deed.en_US" target="_blank" fill="#777">CC BY-SA</a></tspan></text></g></g></svg>

<svg xmlns="http://www.w3.org/2000/svg" version="1.1" style="font-family:&#x27;Helvetica Neue&#x27;, Helvetica, Arial, sans-serif;font-size:18px;background-color:white;text-rendering:optimizeLegibility;-webkit-font-smoothing:antialiased" width="850" height="600"><g class="ChartTab"><g class="HeaderView"><g opacity="0.8" transform="translate(778, 15) scale(0.27)"><a xmlns:xlink="http://www.w3.org/1999/xlink" xlink:href="https://ourworldindata.org" target="_blank"><g><rect x="0" y="0" fill="#1B2543" width="211.2" height="130.1"/><rect x="0" y="112.2" fill="#E63912" width="211.2" height="17.9"/><g><rect x="1.2" y="12.3" fill="none" width="210.2" height="99.2"/><path fill="#FFFFFF" d="M37.8,32.2c0,12.7-7.7,19.4-17.1,19.4c-9.7,0-16.6-7.5-16.6-18.7c0-11.7,7.3-19.3,17.1-19.3 C31.3,13.7,37.8,21.3,37.8,32.2z M9.2,32.8c0,7.9,4.3,14.9,11.8,14.9c7.5,0,11.8-6.9,11.8-15.3c0-7.3-3.8-14.9-11.8-14.9 C13.1,17.5,9.2,24.8,9.2,32.8z"/><path fill="#FFFFFF" d="M62.7,43.8c0,2.7,0.1,5.1,0.2,7.2h-4.3l-0.3-4.3h-0.1c-1.3,2.1-4,4.9-8.8,4.9c-4.2,0-9.1-2.3-9.1-11.6 V24.6h4.8v14.6c0,5,1.5,8.4,5.9,8.4c3.2,0,5.5-2.2,6.3-4.4c0.3-0.7,0.4-1.6,0.4-2.5V24.6h4.8V43.8z"/><path fill="#FFFFFF" d="M67.3,32.8c0-3.1-0.1-5.8-0.2-8.2h4.2l0.2,5.2h0.2c1.2-3.5,4.1-5.8,7.3-5.8c0.5,0,0.9,0.1,1.4,0.2v4.5 c-0.5-0.1-1-0.2-1.6-0.2c-3.4,0-5.8,2.6-6.5,6.2c-0.1,0.7-0.2,1.4-0.2,2.2V51h-4.8V32.8z"/><path fill="#FFFFFF" d="M95.4,51l-9.4-36.8h5l4.4,18.6c1.1,4.6,2.1,9.2,2.7,12.7h0.1c0.6-3.7,1.8-8,3-12.8l4.9-18.5h5l4.5,18.7 c1,4.4,2,8.7,2.6,12.6h0.1c0.8-4,1.8-8.1,3-12.7l4.9-18.5h4.9L120.6,51h-5L111,31.9c-1.1-4.7-1.9-8.3-2.4-12h-0.1 c-0.7,3.7-1.5,7.3-2.8,12L100.4,51H95.4z"/><path fill="#FFFFFF" d="M154.9,37.6c0,9.8-6.8,14-13.2,14c-7.2,0-12.7-5.2-12.7-13.6c0-8.8,5.8-14,13.1-14 C149.8,24,154.9,29.5,154.9,37.6z M133.9,37.9c0,5.8,3.3,10.1,8,10.1c4.6,0,8-4.3,8-10.3c0-4.5-2.2-10.1-7.9-10.1 C136.3,27.6,133.9,32.8,133.9,37.9z"/><path fill="#FFFFFF" d="M158.2,32.8c0-3.1-0.1-5.8-0.2-8.2h4.2l0.2,5.2h0.2c1.2-3.5,4.1-5.8,7.3-5.8c0.5,0,0.9,0.1,1.4,0.2v4.5 c-0.5-0.1-1-0.2-1.6-0.2c-3.4,0-5.8,2.6-6.5,6.2c-0.1,0.7-0.2,1.4-0.2,2.2V51h-4.8V32.8z"/><path fill="#FFFFFF" d="M173.5,12.3h4.8V51h-4.8V12.3z"/><path fill="#FFFFFF" d="M206.5,12.3v31.9c0,2.3,0.1,5,0.2,6.8h-4.3l-0.2-4.6H202c-1.5,2.9-4.7,5.2-9,5.2 c-6.4,0-11.3-5.4-11.3-13.4c-0.1-8.8,5.4-14.2,11.9-14.2c4,0,6.8,1.9,8,4h0.1V12.3H206.5z M201.7,35.4c0-0.6-0.1-1.4-0.2-2 c-0.7-3.1-3.3-5.6-6.9-5.6c-5,0-7.9,4.4-7.9,10.2c0,5.3,2.6,9.8,7.8,9.8c3.2,0,6.2-2.1,7.1-5.7c0.2-0.7,0.2-1.3,0.2-2.1V35.4z"/><path fill="#FFFFFF" d="M42.8,64c0.1,1.6-1.1,2.9-3.1,2.9c-1.7,0-2.9-1.3-2.9-2.9c0-1.7,1.3-3,3-3C41.7,61,42.8,62.3,42.8,64z M37.4,97.8V71.4h4.8v26.4H37.4z"/><path fill="#FFFFFF" d="M47.5,78.6c0-2.7-0.1-5-0.2-7.1h4.3l0.3,4.4h0.1c1.3-2.5,4.4-5,8.8-5c3.7,0,9.4,2.2,9.4,11.2v15.8h-4.8 V82.6c0-4.3-1.6-7.8-6.1-7.8c-3.2,0-5.6,2.2-6.5,4.9c-0.2,0.6-0.3,1.4-0.3,2.2v15.9h-4.8V78.6z"/><path fill="#FFFFFF" d="M84,61.6c2.9-0.4,6.3-0.8,10.1-0.8c6.8,0,11.7,1.6,14.9,4.6c3.3,3,5.2,7.3,5.2,13.2c0,6-1.9,10.9-5.3,14.3 c-3.4,3.4-9.1,5.3-16.3,5.3c-3.4,0-6.2-0.2-8.6-0.4V61.6z M88.8,94.1c1.2,0.2,3,0.3,4.8,0.3c10.2,0,15.7-5.7,15.7-15.6 c0.1-8.7-4.9-14.2-14.9-14.2c-2.5,0-4.3,0.2-5.6,0.5V94.1z"/><path fill="#FFFFFF" d="M132.1,97.8l-0.4-3.3h-0.2c-1.5,2.1-4.3,3.9-8.1,3.9c-5.4,0-8.1-3.8-8.1-7.6c0-6.4,5.7-9.9,15.9-9.8v-0.5 c0-2.2-0.6-6.1-6-6.1c-2.5,0-5,0.8-6.9,2l-1.1-3.2c2.2-1.4,5.4-2.3,8.7-2.3c8.1,0,10.1,5.5,10.1,10.8v9.9c0,2.3,0.1,4.5,0.4,6.3 H132.1z M131.4,84.4c-5.3-0.1-11.2,0.8-11.2,5.9c0,3.1,2.1,4.6,4.5,4.6c3.4,0,5.6-2.2,6.4-4.4c0.2-0.5,0.3-1,0.3-1.5V84.4z"/><path fill="#FFFFFF" d="M146.6,63.9v7.6h6.9v3.7h-6.9v14.2c0,3.3,0.9,5.1,3.6,5.1c1.3,0,2.2-0.2,2.8-0.3l0.2,3.6 c-0.9,0.4-2.4,0.7-4.3,0.7c-2.2,0-4-0.7-5.2-2c-1.4-1.4-1.9-3.8-1.9-6.9V75.1h-4.1v-3.7h4.1v-6.3L146.6,63.9z"/><path fill="#FFFFFF" d="M171.4,97.8l-0.4-3.3h-0.2c-1.5,2.1-4.3,3.9-8.1,3.9c-5.4,0-8.1-3.8-8.1-7.6c0-6.4,5.7-9.9,15.9-9.8v-0.5 c0-2.2-0.6-6.1-6-6.1c-2.5,0-5,0.8-6.9,2l-1.1-3.2c2.2-1.4,5.4-2.3,8.7-2.3c8.1,0,10.1,5.5,10.1,10.8v9.9c0,2.3,0.1,4.5,0.4,6.3 H171.4z M170.7,84.4c-5.3-0.1-11.2,0.8-11.2,5.9c0,3.1,2.1,4.6,4.5,4.6c3.4,0,5.6-2.2,6.4-4.4c0.2-0.5,0.3-1,0.3-1.5V84.4z"/></g></g></a></g><a href="https://ourworldindata.org/grapher/global-child-mortality-timeseries" target="_blank"><text font-size="25.20" x="15.0" y="35.2" fill="#555"><tspan x="15" y="35.160000000000004">Global child mortality</tspan></text></a><text font-size="14.40" x="15.0" y="53.7" fill="#666"><tspan x="15" y="53.72">Share of the world population dying and surviving the first 5 years of life.</tspan></text></g><g class="StackedArea"><defs><clipPath id="boundsClip-1"><rect x="61.634" y="0" width="820" height="959.8"></rect></clipPath></defs><g class="AxisBoxView"><g class="HorizontalAxis"><text x="61.6" y="556.5" fill="#666" text-anchor="middle" font-size="16.2">1800</text><text x="205.9" y="556.5" fill="#666" text-anchor="middle" font-size="16.2">1850</text><text x="350.2" y="556.5" fill="#666" text-anchor="middle" font-size="16.2">1900</text><text x="494.5" y="556.5" fill="#666" text-anchor="middle" font-size="16.2">1950</text><text x="638.8" y="556.5" fill="#666" text-anchor="middle" font-size="16.2">2000</text><text x="687.8" y="556.5" fill="#666" text-anchor="middle" font-size="16.2">2017</text></g><g class="VerticalAxis"><text x="56.63" y="535.3" fill="#666" dominant-baseline="middle" text-anchor="end" font-size="16.2">0%</text><text x="56.63" y="443.8" fill="#666" dominant-baseline="middle" text-anchor="end" font-size="16.2">20%</text><text x="56.63" y="352.3" fill="#666" dominant-baseline="middle" text-anchor="end" font-size="16.2">40%</text><text x="56.63" y="260.8" fill="#666" dominant-baseline="middle" text-anchor="end" font-size="16.2">60%</text><text x="56.63" y="169.4" fill="#666" dominant-baseline="middle" text-anchor="end" font-size="16.2">80%</text><text x="56.63" y="77.9" fill="#666" dominant-baseline="middle" text-anchor="end" font-size="16.2">100%</text></g><g class="AxisGridLines"><line x1="61.63" y1="535.3" x2="687.82" y2="535.3" stroke="#ccc"></line><line x1="61.63" y1="443.8" x2="687.82" y2="443.8" stroke="#ddd" stroke-dasharray="3,2"></line><line x1="61.63" y1="352.3" x2="687.82" y2="352.3" stroke="#ddd" stroke-dasharray="3,2"></line><line x1="61.63" y1="260.8" x2="687.82" y2="260.8" stroke="#ddd" stroke-dasharray="3,2"></line><line x1="61.63" y1="169.4" x2="687.82" y2="169.4" stroke="#ddd" stroke-dasharray="3,2"></line><line x1="61.63" y1="77.9" x2="687.82" y2="77.9" stroke="#ddd" stroke-dasharray="3,2"></line></g></g><g clip-path="url(#boundsClip-1)"><g class="HeightedLegend clickable"><g class="legendMark"><rect x="687.815" y="283.55" width="141.11" height="28.1" fill="#fff" opacity="0"></rect><text font-size="13.50" x="692.8" y="294.4" fill="#2a939b"><tspan x="692.815" y="294.35">Share surviving</tspan><tspan x="692.815" y="309.20000000000005">first 5 years of life</tspan></text></g><g class="legendMark"><rect x="687.815" y="512.35" width="147.185" height="28.1" fill="#fff" opacity="0"></rect><text font-size="13.50" x="692.8" y="523.1" fill="#e6332e"><tspan x="692.815" y="523.15">Share dying in first</tspan><tspan x="692.815" y="538">5 years</tspan></text></g></g><g class="Areas"><rect x="61.634" y="76.6" width="626.181" height="458.69999999999993" opacity="0" fill="rgba(255,255,255,0)"></rect><path class="World_1-area" stroke-linecap="round" d="M61.6 337.2L119.3 340L177.1 350.5L234.8 345.9L292.5 361.5L350.2 369.7L407.9 388.5L465.6 426L523.3 450.7L526.2 452.8L529.1 454.3L532 455.7L534.9 455.2L537.8 456.3L540.6 457L543.5 458L546.4 460.4L549.3 466.8L552.2 469L555.1 470.6L558 472L560.8 473.5L563.7 474.9L566.6 476.1L569.5 477.4L572.4 478.6L575.3 479.8L578.2 480.9L581 482.1L583.9 483.5L586.8 484.8L589.7 486.2L592.6 487.7L595.5 489L598.4 490.2L601.2 491.3L604.1 492.3L609.9 492.7L612.8 493.2L615.7 493.8L618.6 494.3L621.4 494.8L624.3 495.5L627.2 496.2L630.1 497L633 497.9L635.9 498.9L638.8 500L641.6 501.2L644.5 502.5L647.4 503.7L650.3 504.9L653.2 506.3L656.1 507.4L659 508.6L661.8 509.7L664.7 510.8L667.6 511.7L670.5 512.8L673.4 513.8L676.3 514.6L679.2 515.4L682 516.1L684.9 516.8L687.8 517.4L687.815 535.3L61.634 535.3" fill="#e6332e" fill-opacity="0.7"></path><path class="World_0-area" stroke-linecap="round" d="M61.6 77.9L119.3 77.9L177.1 77.9L234.8 77.9L292.5 77.9L350.2 77.9L407.9 77.9L465.6 77.9L523.3 77.9L526.2 77.9L529.1 77.9L532 77.9L534.9 77.9L537.8 77.9L540.6 77.9L543.5 77.9L546.4 77.9L549.3 77.9L552.2 77.9L555.1 77.9L558 77.9L560.8 77.9L563.7 77.9L566.6 77.9L569.5 77.9L572.4 77.9L575.3 77.9L578.2 77.9L581 77.9L583.9 77.9L586.8 77.9L589.7 77.9L592.6 77.9L595.5 77.9L598.4 77.9L601.2 77.9L604.1 77.9L609.9 76.7L612.8 76.6L615.7 76.7L618.6 76.8L621.4 76.9L624.3 77.1L627.2 77.2L630.1 77.3L633 77.3L635.9 77.3L638.8 77.3L641.6 77.4L644.5 77.4L647.4 77.4L650.3 77.4L653.2 77.5L656.1 77.5L659 77.7L661.8 77.8L664.7 77.9L667.6 78L670.5 78L673.4 78L676.3 78.1L679.2 78.1L682 78.2L684.9 77.9L687.8 77.9L687.8 517.4L684.9 516.8L682 516.1L679.2 515.4L676.3 514.6L673.4 513.8L670.5 512.8L667.6 511.7L664.7 510.8L661.8 509.7L659 508.6L656.1 507.4L653.2 506.3L650.3 504.9L647.4 503.7L644.5 502.5L641.6 501.2L638.8 500L635.9 498.9L633 497.9L630.1 497L627.2 496.2L624.3 495.5L621.4 494.8L618.6 494.3L615.7 493.8L612.8 493.2L609.9 492.7L604.1 492.3L601.2 491.3L598.4 490.2L595.5 489L592.6 487.7L589.7 486.2L586.8 484.8L583.9 483.5L581 482.1L578.2 480.9L575.3 479.8L572.4 478.6L569.5 477.4L566.6 476.1L563.7 474.9L560.8 473.5L558 472L555.1 470.6L552.2 469L549.3 466.8L546.4 460.4L543.5 458L540.6 457L537.8 456.3L534.9 455.2L532 455.7L529.1 454.3L526.2 452.8L523.3 450.7L465.6 426L407.9 388.5L350.2 369.7L292.5 361.5L234.8 345.9L177.1 350.5L119.3 340L61.6 337.2" fill="#2a939b" fill-opacity="0.7"></path><path class="World_1-border" stroke-linecap="round" d="M61.6 337.2L119.3 340L177.1 350.5L234.8 345.9L292.5 361.5L350.2 369.7L407.9 388.5L465.6 426L523.3 450.7L526.2 452.8L529.1 454.3L532 455.7L534.9 455.2L537.8 456.3L540.6 457L543.5 458L546.4 460.4L549.3 466.8L552.2 469L555.1 470.6L558 472L560.8 473.5L563.7 474.9L566.6 476.1L569.5 477.4L572.4 478.6L575.3 479.8L578.2 480.9L581 482.1L583.9 483.5L586.8 484.8L589.7 486.2L592.6 487.7L595.5 489L598.4 490.2L601.2 491.3L604.1 492.3L609.9 492.7L612.8 493.2L615.7 493.8L618.6 494.3L621.4 494.8L624.3 495.5L627.2 496.2L630.1 497L633 497.9L635.9 498.9L638.8 500L641.6 501.2L644.5 502.5L647.4 503.7L650.3 504.9L653.2 506.3L656.1 507.4L659 508.6L661.8 509.7L664.7 510.8L667.6 511.7L670.5 512.8L673.4 513.8L676.3 514.6L679.2 515.4L682 516.1L684.9 516.8L687.8 517.4" stroke="rgb(192, 43, 38)" stroke-opacity="0.7" stroke-width="0.5" fill="none"></path><path class="World_0-border" stroke-linecap="round" d="M61.6 77.9L119.3 77.9L177.1 77.9L234.8 77.9L292.5 77.9L350.2 77.9L407.9 77.9L465.6 77.9L523.3 77.9L526.2 77.9L529.1 77.9L532 77.9L534.9 77.9L537.8 77.9L540.6 77.9L543.5 77.9L546.4 77.9L549.3 77.9L552.2 77.9L555.1 77.9L558 77.9L560.8 77.9L563.7 77.9L566.6 77.9L569.5 77.9L572.4 77.9L575.3 77.9L578.2 77.9L581 77.9L583.9 77.9L586.8 77.9L589.7 77.9L592.6 77.9L595.5 77.9L598.4 77.9L601.2 77.9L604.1 77.9L609.9 76.7L612.8 76.6L615.7 76.7L618.6 76.8L621.4 76.9L624.3 77.1L627.2 77.2L630.1 77.3L633 77.3L635.9 77.3L638.8 77.3L641.6 77.4L644.5 77.4L647.4 77.4L650.3 77.4L653.2 77.5L656.1 77.5L659 77.7L661.8 77.8L664.7 77.9L667.6 78L670.5 78L673.4 78L676.3 78.1L679.2 78.1L682 78.2L684.9 77.9L687.8 77.9" stroke="rgb(35, 123, 130)" stroke-opacity="0.7" stroke-width="0.5" fill="none"></path></g></g></g><g class="SourcesFooter" style="fill:#777"><g class="clickable" style="fill:#777"><text font-size="12.60" x="15.0" y="581.6"><tspan x="15" y="581.58">Source: Gapminder and the World Bank</tspan></text></g><text font-size="12.60" x="383.2" y="581.6"><tspan x="383.164" y="581.58"><a target='_blank' style='fill: #777;' href='https://ourworldindata.org/a-history-of-global-living-conditions-in-5-charts/'>OurWorldInData.org/a-history-of-global-living-conditions-in-5-charts/</a> • <a style="fill: #777;" class="cclogo" href="http://creativecommons.org/licenses/by-sa/4.0/deed.en_US" target="_blank">CC BY-SA</a></tspan></text></g></g></svg>
